X:1
T:Jesus Is Mighty to Save
T:Jesus Is Mighty to Save
T:Lelia Naylor Morris
T:Lelia Naylor Morris, 1899
T:Public Domain Courtesy of the Cyber Hymnal™
T:Public Domain Courtesy of the Cyber Hymnal™
C:Lelia Naylor Morris
Z:Public Domain
Z:Courtesy of the Cyber Hymnal™
%%score ( 1 2 ) ( 3 4 )
L:1/8
Q:1/4=102
M:4/4
K:Eb
V:1 treble 
V:2 treble 
V:3 bass 
V:4 bass 
V:1
 [EG]>[FA] | [GB]2 [AB]2 [GB]2 [Ac]>[Ad] | [Ge]2 [Ac]2 [GB]2 [FA]>[EG] | %3
w: 1.~When the|tem- pests rage and the|storms beat high, There is|
w: 2.~Not a|cloud so dark, but His|love shines thro’, Not a|
w: 3.~Not a|tear- drop falls but the|Sav- ior knows, And His|
w: 4.~Ne- ver|yet in vain has a|sin- ner cried, Ne- ver|
 [DF]2 [Ad]2 [Ad]2 [Ac]>[AB] | [Gc]2 [GB]2 [EG]2 [EG]>[FA] | [GB]2 [AB]2 B2 [Ac]>[Ad] | %6
w: re- fuge near, and a|shel- ter nigh; He who|calmed the winds and the|
w: shade so deep but His|face we view; For His|arm is strong, and His|
w: great heart throbs with our|bit- ter woes; For He|knows our flesh and our|
w: yet in vain was the|blood ap- plied; Who- so-|ev- er will may in|
 [Be]2 [Bd]2 [Ac]2 [Bc]>[Bc] | [=Ac]2 [Ac]2 (ce)[Ad][Ac] | [FB]2 =A2 [DB]4 || %9
w: roll- ing wave Is Je-|ho- vah still, * and is|strong to save.|
w: heart is kind, All who|in Him trust * shall a|Sav- ior find.|
w: fee- ble frame, Ev- ery|pang we feel, * He has|known the same.|
w: Him be blest, Who- so-|ev- er will * find a|per- fect rest.|
"^Refrain" [GB]2 [FB]>[AB] [GB]3 [EG] | (BA)[DG][DF] [DF] E3 | [EG] [GB]2 [GB] [Ac] [Ae]2 [EG] | %12
w: |||
w: Migh- ty to save and|strong * to de- liv- er,|Je- sus is migh- ty to|
w: |||
w: |||
 [DF]6 z2 | [GB]2 [FB]>[AB] [GB]3 [AB] | [AB]2 [Ac][Ad] [Af] [Ge]3 | %15
w: |||
w: save;|Migh- ty to save and|strong to de- liv- er,|
w: |||
w: |||
 [Ge] [GB]2 [EG] [DB] [DA]2 [DF] | E4 x2 |] %17
w: ||
w: Je- sus is migh- ty to|save.|
w: ||
w: ||
V:2
 x2 | x8 | x8 | x8 | x8 | x4 B2 x2 | x8 | x4 =A2 x2 | x2 (FE) x4 || x8 | D2 x2 E3 x | x8 | x8 | %13
 x8 | x8 | x8 | (B,B, C2 B,2) |] %17
V:3
 [E,B,]>[E,B,] | [E,E]2 [F,D]2 [G,E]2 [A,E]>[F,B,] | [E,B,]2 [E,E]2 [E,E]2 [E,B,]>[E,B,] | %3
w: |||
 [B,,B,]2 [B,,B,]2 [B,,B,]2 [B,,B,]>[B,,B,] | [E,E]2 [E,E]2 [E,B,]2 [E,B,]>[E,B,] | %5
w: ||
 [E,E]2 [F,D]2 [G,E]2 [A,E]>[A,E] | [G,E]2 [G,E]2 [A,E]2 [G,=E]>[G,E] | %7
w: ||
 [F,F]2 [F,F]2 (EC)[F,F][F,E] | [F,D]2 [F,C]2 [B,,B,]4 || [E,E]2 [B,,D]>[B,,D] [E,E]3 [E,B,] | %10
w: ||Migh- ty to save and|
 [B,,B,]2 [B,,B,][B,,B,] [E,A,][E,G,][E,G,][E,G,] | [E,B,]2 [E,E]2 [A,E]2 [A,C]2 | B,6 G,F, | %13
w: strong to de- liv- er, Je- sus|is migh- ty, yes,|migh- ty to|
 [E,E]2 [B,,D]>[B,,D] [E,F]3 [B,,D] | [B,,D]2 [B,,B,][B,,B,] [B,,B,][E,B,][E,B,][E,B,] | %15
w: |* * * * * save; He|
 [E,B,]2 [E,B,]2 [B,,B,]2 [B,,B,]2 | [E,G,][E,G,] [E,A,]2 [E,G,]2 |] %17
w: is Je- sus is|migh- ty, yes, migh-|
V:4
 x2 | x8 | x8 | x8 | x8 | x8 | x8 | x4 F,2 x2 | x8 || x8 | x8 | x8 | B,2 B,>B, (B,A,) x2 | x8 | %14
 x8 | x8 | x6 |] %17

